icons/Design/pencil-ruler-line.svg

<svg viewBox="0 0 24 24" xmlns="http://www.w3.org/2000/svg"><path d="M5 8V20H9V8H5ZM3 7L7 2L11 7V22H3V7ZM19 16V14H16V12H19V10H17V8H19V6H15V20H19V18H17V16H19ZM14 4H20C20.5523 4 21 4.44772 21 5V21C21 21.5523 20.5523 22 20 22H14C13.4477 22 13 21.5523 13 21V5C13 4.44772 13.4477 4 14 4Z"/></svg>

<svg xmlns="http://www.w3.org/2000/svg" viewBox="0 0 24 24">
    <g>
        <path fill="none" d="M0 0h24v24H0z"/>
        <path d="M5 8v12h4V8H5zM3 7l4-5 4 5v15H3V7zm16 9v-2h-3v-2h3v-2h-2V8h2V6h-4v14h4v-2h-2v-2h2zM14 4h6a1 1 0 0 1 1 1v16a1 1 0 0 1-1 1h-6a1 1 0 0 1-1-1V5a1 1 0 0 1 1-1z"/>
    </g>
</svg>
